flaticon/real-estate/house-5.svg

<svg xmlns="http://www.w3.org/2000/svg" width="32" height="32" viewBox="0 0 24 24">
    <path d="M 22.914062 8.847656 L 13.71875 0.691406 C 12.757812 -0.230469 11.242188 -0.230469 10.28125 0.691406 L 7.203125 3.488281 L 7.203125 2.410156 L 7.601562 2.410156 C 7.839844 2.410156 8 2.25 8 2.007812 L 8 0.410156 C 8 0.171875 7.839844 0.0117188 7.601562 0.0117188 L 2.804688 0.0117188 C 2.5625 0.0117188 2.402344 0.171875 2.402344 0.410156 L 2.402344 2.007812 C 2.402344 2.25 2.5625 2.410156 2.804688 2.410156 L 3.203125 2.410156 L 3.203125 7.007812 L 1.085938 8.847656 C 0.804688 9.125 0.726562 9.527344 0.84375 9.847656 C 0.964844 10.164062 1.324219 10.40625 1.683594 10.40625 L 3.203125 10.40625 L 3.203125 21.601562 L 2.804688 21.601562 C 2.5625 21.601562 2.402344 21.761719 2.402344 22 L 2.402344 23.601562 C 2.402344 23.839844 2.5625 24 2.804688 24 L 21.195312 24 C 21.4375 24 21.597656 23.839844 21.597656 23.558594 L 21.597656 21.960938 C 21.597656 21.722656 21.4375 21.5625 21.195312 21.5625 L 20.796875 21.5625 L 20.796875 10.367188 L 22.316406 10.367188 C 22.714844 10.367188 23.035156 10.164062 23.15625 9.804688 C 23.273438 9.484375 23.195312 9.085938 22.914062 8.847656 Z M 22.394531 9.566406 C 22.355469 9.605469 22.316406 9.605469 22.316406 9.605469 L 20.394531 9.605469 C 20.15625 9.605469 19.996094 9.765625 19.996094 10.003906 L 19.996094 22 C 19.996094 22.242188 20.15625 22.402344 20.394531 22.402344 L 20.796875 22.402344 L 20.796875 23.199219 L 3.203125 23.199219 L 3.203125 22.402344 L 3.601562 22.402344 C 3.84375 22.402344 4.003906 22.242188 4.003906 22 L 4.003906 10.003906 C 4.003906 9.765625 3.84375 9.605469 3.601562 9.605469 L 1.683594 9.605469 C 1.644531 9.605469 1.644531 9.605469 1.605469 9.566406 C 1.605469 9.527344 1.605469 9.484375 1.644531 9.445312 L 3.882812 7.527344 C 3.964844 7.445312 4.003906 7.328125 4.003906 7.207031 L 4.003906 2.007812 C 4.003906 1.769531 3.84375 1.609375 3.601562 1.609375 L 3.203125 1.609375 L 3.203125 0.808594 L 7.203125 0.808594 L 7.203125 1.609375 L 6.800781 1.609375 C 6.5625 1.609375 6.402344 1.769531 6.402344 2.007812 L 6.402344 4.40625 C 6.402344 4.566406 6.480469 4.726562 6.640625 4.847656 C 6.800781 4.886719 6.960938 4.886719 7.082031 4.769531 L 10.839844 1.328125 C 11.480469 0.691406 12.480469 0.691406 13.160156 1.328125 L 22.355469 9.484375 C 22.394531 9.484375 22.4375 9.527344 22.394531 9.566406 Z M 22.394531 9.566406"/>
    <path d="M 10.800781 9.207031 C 9.042969 9.207031 7.601562 10.644531 7.601562 12.40625 C 7.601562 14.164062 9.042969 15.605469 10.800781 15.605469 C 12.558594 15.605469 14 14.164062 14 12.40625 C 14 10.644531 12.558594 9.207031 10.800781 9.207031 Z M 10.800781 14.804688 C 9.480469 14.804688 8.402344 13.722656 8.402344 12.40625 C 8.402344 11.085938 9.480469 10.003906 10.800781 10.003906 C 12.121094 10.003906 13.199219 11.085938 13.199219 12.40625 C 13.199219 13.722656 12.121094 14.804688 10.800781 14.804688 Z M 10.800781 14.804688"/>
    <path d="M 14.757812 15.082031 C 15.320312 14.285156 15.597656 13.363281 15.597656 12.40625 C 15.597656 9.765625 13.4375 7.605469 10.800781 7.605469 C 8.160156 7.605469 6.003906 9.765625 6.003906 12.40625 C 6.003906 15.042969 8.160156 17.203125 10.800781 17.203125 C 11.558594 17.203125 12.320312 17.003906 12.960938 16.683594 L 17.15625 20.839844 C 17.238281 20.921875 17.316406 20.960938 17.4375 20.960938 C 17.519531 20.960938 17.636719 20.921875 17.71875 20.839844 L 18.835938 19.722656 C 18.996094 19.5625 18.996094 19.320312 18.835938 19.160156 Z M 17.4375 20 L 13.320312 15.882812 C 13.238281 15.804688 13.160156 15.761719 13.039062 15.761719 C 12.960938 15.761719 12.917969 15.804688 12.839844 15.84375 C 12.238281 16.203125 11.519531 16.402344 10.800781 16.402344 C 8.601562 16.402344 6.800781 14.605469 6.800781 12.40625 C 6.800781 10.207031 8.601562 8.40625 10.800781 8.40625 C 13 8.40625 14.800781 10.207031 14.800781 12.40625 C 14.800781 13.324219 14.480469 14.164062 13.917969 14.882812 C 13.800781 15.042969 13.800781 15.242188 13.960938 15.402344 L 17.996094 19.441406 Z M 17.4375 20"/>
</svg>

<svg xmlns="http://www.w3.org/2000/svg" width="32" height="32" viewBox="0 0 24 24">
    <path d="M22.914 8.848L13.72.69a2.482 2.482 0 0 0-3.438 0L7.203 3.488V2.41h.399c.238 0 .398-.16.398-.402V.41c0-.238-.16-.398-.398-.398H2.805c-.243 0-.403.16-.403.398v1.598c0 .242.16.402.403.402h.398v4.598l-2.117 1.84a.962.962 0 0 0-.242 1c.12.316.48.558.84.558h1.52v11.196h-.4c-.241 0-.402.16-.402.398v1.602c0 .238.16.398.403.398h18.39c.242 0 .403-.16.403-.441V21.96c0-.238-.16-.398-.403-.398h-.398V10.367h1.52c.398 0 .718-.203.84-.562a.875.875 0 0 0-.243-.957zm-.52.718c-.039.04-.078.04-.078.04h-1.921c-.239 0-.399.16-.399.398V22c0 .242.16.402.399.402h.402v.797H3.203v-.797h.399c.242 0 .402-.16.402-.402V10.004c0-.238-.16-.399-.402-.399H1.684c-.04 0-.04 0-.079-.039 0-.039 0-.082.04-.12l2.238-1.919a.449.449 0 0 0 .12-.32v-5.2c0-.237-.16-.398-.401-.398h-.399v-.8h4v.8h-.402c-.239 0-.399.16-.399.399v2.398c0 .16.078.32.239.442.16.039.32.039.441-.078l3.758-3.442c.64-.637 1.64-.637 2.32 0l9.195 8.156c.04 0 .082.043.04.082zm0 0"/>
    <path d="M10.8 9.207a3.208 3.208 0 0 0-3.198 3.2 3.21 3.21 0 0 0 3.199 3.198A3.21 3.21 0 0 0 14 12.406c0-1.761-1.441-3.199-3.2-3.199zm0 5.598a2.406 2.406 0 0 1-2.398-2.399 2.407 2.407 0 0 1 2.399-2.402 2.407 2.407 0 0 1 2.398 2.402 2.406 2.406 0 0 1-2.398 2.399zm0 0"/>
    <path d="M14.758 15.082c.562-.797.84-1.719.84-2.676 0-2.64-2.16-4.8-4.797-4.8-2.64 0-4.797 2.16-4.797 4.8a4.81 4.81 0 0 0 4.797 4.797c.758 0 1.52-.2 2.16-.52l4.195 4.157c.082.082.16.12.282.12.082 0 .199-.038.28-.12l1.118-1.117a.39.39 0 0 0 0-.563zM17.438 20l-4.118-4.117a.375.375 0 0 0-.28-.121c-.08 0-.122.043-.2.082-.602.36-1.32.558-2.04.558-2.198 0-4-1.797-4-3.996s1.802-4 4-4c2.2 0 4 1.801 4 4 0 .918-.32 1.758-.882 2.477a.38.38 0 0 0 .043.52l4.035 4.038zm0 0"/>
</svg>
